X: 306
T: Sally in the Turnip Patch
B: canberra pickers and fiddlers
B: tunes
M:C|
L:1/8
R: reel
Q: 1/4=100
K:D
V:1 
[G2A2]-|[A2A2][A2A2]- [A2A2]([AA]B)-|cBAc BAF[FA]|[G3B3]A [G2B2]GA|B2[G2B2]GGFG|
[A3A3]B[A2A2]AB-|cBAc BAFG|ABAF- (E2-[E2A2])|([D3A3]E) [D2A2]:|
|:[c2=f2]-|[d2^f2][d2f2]- [df]ed-e|fedf- ed=c-A|J[=c3e3](d [c2e2])B2|AJ=c-cA B-Ac-A|
[d3f3][ef]- [d2f2]=f2-|^fddf- ed=c-A|=c-BA[FA]- [FA]DEF|[D3A3][EA] [D2A2]:|
% abcbook-tune_id 63da59347652fe0d6925ee5f
% abcbook-tune_composer_id 
% abcbook-link-0 https://www.youtube.com/watch?v=I5JlRoU6UZQ
% abcbook-link-start-at-0 7
% abcbook-boost 0
% abcbook-difficulty 0
% abcbook-tags canberra pickers and fiddlers,old time tunes,© free
% abcbook-tablature 
% abcbook-transpose 
% abcbook-tuning ADAE
% abcbook-lastupdated 1738709780457
% abcbook-src-url https://tunebook.net/scrape/tunes.abc
% abcbook-soundfonts 
% abcbook-repeats 1
%%gchordfont "itim-music,Itim" 20

